%
O1001
(T1 D=10. CR=0. - ZMIN=-3. - FLAT END MILL)
(T2 D=3. CR=0. - ZMIN=-5. - FLAT END MILL)
(T3 D=4. CR=0. - ZMIN=-6. - FLAT END MILL)
N10 G90 G94 G17 G49 G40 G80
N15 G21
N20 G28 G91 Z0.
N25 G90

(FACE1)
N30 T1 M06
N35 T2
N40 S5000 M03
N45 G17 G90 G94
N50 G54
N55 M08
N60 G00 X31.5 Y-23.666
N65 G43 Z15. H01
N70 G00 Z5.
N75 G01 Z1. F333.
N80 G18 G03 X30.5 Z0. I-1. F1000.
N85 G01 X30.01
N90 X-30.01
N95 G17 G02 Y-17.403 J3.132
N100 G01 X30.01
N105 G03 Y-11.139 J3.132
N110 G01 X-30.01
N115 G02 Y-4.875 J3.132
N120 G01 X30.01
N125 G03 Y1.389 J3.132
N130 G01 X-30.01
N135 G02 Y7.653 J3.132
N140 G01 X30.01
N145 G03 Y13.916 J3.132
N150 G01 X-30.01
N155 G02 Y20.18 J3.132
N160 G01 X30.01
N165 G18 G02 X31.01 Z1. K1.
N170 G00 Z15.
N175 G17

(ADAPTIVE1)
N180 G00 X33.819 Y32.318
N185 Z15.
N190 Z5.
N195 Z-0.5
N200 G01 Z-1.5 F1000.
N205 X33.813 Y32.314 Z-1.621
N210 X33.794 Y32.303 Z-1.739
N215 X33.763 Y32.284 Z-1.855
N220 X33.721 Y32.259 Z-1.965
N225 X33.667 Y32.227 Z-2.068
N230 X33.603 Y32.189 Z-2.163
N235 X33.529 Y32.146 Z-2.249
N240 X33.448 Y32.098 Z-2.323
N245 X33.359 Y32.045 Z-2.385
N250 X33.264 Y31.989 Z-2.435
N255 X33.165 Y31.93 Z-2.471
N260 X33.062 Y31.869 Z-2.493
N265 X32.959 Y31.808 Z-2.5
N270 G03 X28.556 Y28.512 I13.008 J-21.967
N275 G01 X28.499 Y28.456
N280 X28.202 Y28.
N285 X27.884 Y27.415
N290 X27.548 Y26.655
N295 X27.195 Y25.646
N300 X26.904 Y24.538
N305 X26.685 Y23.413
N310 X26.519 Y22.279
N315 X26.392 Y21.141
N320 X26.296 Y19.999
N325 X26.223 Y18.855
N330 X26.167 Y17.711
N335 X26.124 Y16.566
N340 X26.091 Y15.42
N345 X26.066 Y14.274
N350 X26.046 Y13.129
N355 X26.032 Y11.983
N360 X26.02 Y10.837
N365 X26.011 Y9.691
N370 X26.005 Y8.545
N375 X25.999 Y7.399
N380 X25.992 Y5.108
N385 X25.988 Y3.26
N390 X26.011 Y2.935
N395 X26.078 Y2.616
N400 X26.189 Y2.309
N405 X26.351 Y1.946
N410 X26.448 Y1.646
N415 X26.531 Y1.347
N420 X26.607 Y1.048
N425 X26.688 Y0.449
N430 X26.699 Y0.15
N435 Y-0.15
N440 X26.688 Y-0.449
N445 X26.607 Y-1.048
N450 X26.454 Y-2.183
N455 X26.342 Y-3.324
N460 X26.256 Y-4.466
N465 X26.191 Y-5.61
N470 X26.142 Y-6.755
N475 X26.104 Y-7.901
N480 X26.074 Y-9.046
N485 X26.052 Y-10.192
N490 X26.035 Y-11.338
N495 X26.022 Y-12.483
N500 X26.012 Y-13.629
N505 X26.004 Y-14.775
N510 X25.998 Y-15.921
N515 X25.993 Y-17.067
N520 X25.987 Y-19.359
N525 X25.984 Y-20.505
N530 X25.838 Y-21.059
N535 X25.323 Y-22.082
N540 X24.542 Y-22.921
N545 X23.614 Y-23.593
N550 X22.6 Y-24.126
N555 X21.533 Y-24.545
N560 X20.435 Y-24.872
N565 X19.318 Y-25.126
N570 X18.189 Y-25.324
N575 X17.053 Y-25.476
N580 X15.913 Y-25.594
N585 X14.771 Y-25.684
N590 X13.627 Y-25.754
N595 X12.482 Y-25.808
N600 X11.337 Y-25.849
N605 X10.192 Y-25.88
N610 X9.046 Y-25.904
N615 X7.9 Y-25.923
N620 X6.755 Y-25.937
N625 X5.609 Y-25.948
N630 X4.463 Y-25.956
N635 X3.306 Y-25.962
N640 X2.985 Y-25.986
N645 X2.671 Y-26.053
N650 X2.368 Y-26.163
N655 X1.946 Y-26.351
N660 X1.646 Y-26.448
N665 X1.347 Y-26.531
N670 X1.048 Y-26.607
N675 X0.449 Y-26.688
N680 X0.15 Y-26.699
N685 X-0.15
N690 X-0.449 Y-26.688
N695 X-1.048 Y-26.607
N700 X-2.183 Y-26.454
N705 X-3.324 Y-26.342
N710 X-4.466 Y-26.257
N715 X-5.611 Y-26.192
N720 X-6.755 Y-26.143
N725 X-7.901 Y-26.105
N730 X-9.046 Y-26.076
N735 X-10.192 Y-26.054
N740 X-11.338 Y-26.037
N745 X-12.483 Y-26.023
N750 X-13.629 Y-26.013
N755 X-14.775 Y-26.006
N760 X-15.921 Y-26.
N765 X-17.067 Y-25.995
N770 X-19.359 Y-25.989
N775 X-20.505 Y-25.987
N780 X-21.059 Y-25.84
N785 X-22.082 Y-25.325
N790 X-22.921 Y-24.544
N795 X-23.593 Y-23.616
N800 X-24.126 Y-22.602
N805 X-24.544 Y-21.535
N810 X-24.871 Y-20.437
N815 X-25.126 Y-19.319
N820 X-25.323 Y-18.191
N825 X-25.475 Y-17.055
N830 X-25.593 Y-15.915
N835 X-25.684 Y-14.773
N840 X-25.753 Y-13.629
N845 X-25.807 Y-12.484
N850 X-25.848 Y-11.339
N855 X-25.879 Y-10.194
N860 X-25.903 Y-9.048
N865 X-25.922 Y-7.902
N870 X-25.936 Y-6.756
N875 X-25.946 Y-5.611
N880 X-25.955 Y-4.465
N885 X-25.961 Y-3.308
N890 X-25.984 Y-2.988
N895 X-26.052 Y-2.673
N900 X-26.162 Y-2.371
N905 X-26.351 Y-1.946
N910 X-26.448 Y-1.646
N915 X-26.531 Y-1.347
N920 X-26.607 Y-1.048
N925 X-26.688 Y-0.449
N930 X-26.699 Y-0.15
N935 Y0.15
N940 X-26.688 Y0.449
N945 X-26.607 Y1.048
N950 X-26.454 Y2.183
N955 X-26.342 Y3.324
N960 X-26.256 Y4.466
N965 X-26.191 Y5.61
N970 X-26.142 Y6.755
N975 X-26.103 Y7.901
N980 X-26.074 Y9.046
N985 X-26.052 Y10.192
N990 X-26.035 Y11.338
N995 X-26.022 Y12.483
N1000 X-26.011 Y13.629
N1005 X-26.004 Y14.775
N1010 X-25.998 Y15.921
N1015 X-25.993 Y17.067
N1020 X-25.987 Y19.359
N1025 X-25.984 Y20.505
N1030 X-25.838 Y21.059
N1035 X-25.323 Y22.082
N1040 X-24.542 Y22.921
N1045 X-23.614 Y23.593
N1050 X-22.6 Y24.126
N1055 X-21.533 Y24.544
N1060 X-20.435 Y24.872
N1065 X-19.317 Y25.126
N1070 X-18.189 Y25.323
N1075 X-17.053 Y25.476
N1080 X-15.913 Y25.593
N1085 X-14.771 Y25.684
N1090 X-13.627 Y25.753
N1095 X-12.482 Y25.807
N1100 X-11.337 Y25.848
N1105 X-10.192 Y25.879
N1110 X-9.046 Y25.903
N1115 X-7.9 Y25.922
N1120 X-6.754 Y25.936
N1125 X-5.609 Y25.947
N1130 X-4.463 Y25.955
N1135 X-3.308 Y25.961
N1140 X-2.987 Y25.985
N1145 X-2.673 Y26.052
N1150 X-2.371 Y26.162
N1155 X-1.946 Y26.351
N1160 X-1.646 Y26.448
N1165 X-1.347 Y26.531
N1170 X-1.048 Y26.607
N1175 X-0.449 Y26.688
N1180 X-0.15 Y26.699
N1185 X0.15
N1190 X0.449 Y26.688
N1195 X1.048 Y26.607
N1200 X2.183 Y26.454
N1205 X3.324 Y26.342
N1210 X4.466 Y26.256
N1215 X5.61 Y26.191
N1220 X6.755 Y26.142
N1225 X7.901 Y26.104
N1230 X9.046 Y26.074
N1235 X10.192 Y26.052
N1240 X11.338 Y26.035
N1245 X12.483 Y26.022
N1250 X13.629 Y26.012
N1255 X14.775 Y26.004
N1260 X15.921 Y25.998
N1265 X17.067 Y25.993
N1270 X17.35 Y25.95
N1275 X17.626 Y25.872
N1280 X17.89 Y25.761
N1285 X18.884 Y25.19
N1290 X19.637 Y24.327
N1295 X20.218 Y23.339
N1300 X20.662 Y22.283
N1305 X21. Y21.188
N1310 X21.254 Y20.07
N1315 X21.444 Y18.94
N1320 X21.586 Y17.803
N1325 X21.692 Y16.662
N1330 X21.77 Y15.519
N1335 X21.828 Y14.375
N1340 X21.87 Y13.23
N1345 X21.901 Y12.084
N1350 X21.924 Y10.938
N1355 X21.94 Y9.793
N1360 X21.952 Y8.647
N1365 X21.957 Y7.983
N1370 X21.988 Y7.622
N1375 X22.075 Y7.27
N1380 X22.215 Y6.935
N1385 X22.405 Y6.626
N1390 X22.641 Y6.351
N1395 X24.695 Y4.297
N1400 X24.95 Y4.041
N1405 X25.129 Y3.856
N1410 X25.188 Y3.803 Z-2.49
N1415 X25.25 Y3.756 Z-2.48
N1420 G02 X26.008 Y3.063 Z-2.349 I-2.252 J-3.224
N1425 X26.193 Y2.73 Z-2.3 I-0.765 J-0.644
N1430 G01 X26.201 Y2.703
N1435 X26.86 Y0.475
N1440 X26.867 Y0.451 Z-2.303
N1445 G02 X26.9 Y0.044 Z-2.356 I-0.959 J-0.283
N1450 X26.641 Y-0.95 Z-2.487 I-3.902 J0.489
N1455 G01 X26.607 Y-1.048 Z-2.5
N1460 X26.531 Y-1.347
N1465 X26.448 Y-1.646
N1470 X26.351 Y-1.946
N1475 X26.085 Y-2.544
N1480 X25.892 Y-2.858
N1485 X25.714 Y-3.143
N1490 X25.593 Y-3.324
N1495 X25.495 Y-3.442
N1500 X25.293 Y-3.686
N1505 X25.239 Y-3.742
N1510 X24.836 Y-4.202
N1515 X24.537 Y-4.605
N1520 X24.216 Y-5.119
N1525 X23.876 Y-5.775
N1530 X23.519 Y-6.626
N1535 X23.161 Y-7.714
N1540 X22.888 Y-8.827
N1545 X22.68 Y-9.954
N1550 X22.519 Y-11.089
N1555 X22.396 Y-12.228
N1560 X22.301 Y-13.37
N1565 X22.228 Y-14.513
N1570 X22.162 Y-15.657
N1575 X21.77 Y-16.734
N1580 X21.131 Y-17.686
N1585 X20.321 Y-18.496
N1590 X19.396 Y-19.173
N1595 X18.395 Y-19.73
N1600 X17.342 Y-20.184
N1605 X16.257 Y-20.551
N1610 X15.15 Y-20.846
N1615 X14.029 Y-21.083
N1620 X12.898 Y-21.272
N1625 X11.762 Y-21.422
N1630 X10.623 Y-21.541
N1635 X9.481 Y-21.635
N1640 X8.337 Y-21.709
N1645 X8.121 Y-21.721
N1650 X7.781 Y-21.763
N1655 X7.452 Y-21.855
N1660 X7.139 Y-21.994
N1665 X6.85 Y-22.177
N1670 X6.591 Y-22.401
N1675 X4.297 Y-24.695
N1680 X4.041 Y-24.95
N1685 X3.856 Y-25.129
N1690 X3.803 Y-25.188 Z-2.49
N1695 X3.756 Y-25.25 Z-2.48
N1700 G02 X3.063 Y-26.008 Z-2.349 I-3.224 J2.252
N1705 X2.73 Y-26.193 Z-2.3 I-0.644 J0.765
N1710 G01 X2.703 Y-26.201
N1715 X0.475 Y-26.86
N1720 X0.451 Y-26.867 Z-2.303
N1725 G02 X0.044 Y-26.9 Z-2.356 I-0.283 J0.959
N1730 X-0.95 Y-26.641 Z-2.487 I0.489 J3.902
N1735 G01 X-1.048 Y-26.607 Z-2.5
N1740 X-1.347 Y-26.531
N1745 X-1.646 Y-26.448
N1750 X-1.946 Y-26.351
N1755 X-2.544 Y-26.085
N1760 X-2.858 Y-25.892
N1765 X-3.143 Y-25.714
N1770 X-3.324 Y-25.593
N1775 X-3.442 Y-25.495
N1780 X-3.686 Y-25.293
N1785 X-3.742 Y-25.239
N1790 X-4.2 Y-24.838
N1795 X-4.603 Y-24.539
N1800 X-5.117 Y-24.217
N1805 X-5.773 Y-23.878
N1810 X-6.623 Y-23.52
N1815 X-7.712 Y-23.163
N1820 X-8.825 Y-22.89
N1825 X-9.952 Y-22.681
N1830 X-11.087 Y-22.521
N1835 X-12.226 Y-22.398
N1840 X-13.368 Y-22.303
N1845 X-14.511 Y-22.23
N1850 X-15.655 Y-22.164
N1855 X-16.732 Y-21.773
N1860 X-17.684 Y-21.134
N1865 X-18.495 Y-20.324
N1870 X-19.171 Y-19.4
N1875 X-19.728 Y-18.398
N1880 X-20.182 Y-17.346
N1885 X-20.55 Y-16.261
N1890 X-20.845 Y-15.154
N1895 X-21.082 Y-14.032
N1900 X-21.271 Y-12.902
N1905 X-21.421 Y-11.766
N1910 X-21.54 Y-10.626
N1915 X-21.634 Y-9.484
N1920 X-21.708 Y-8.341
N1925 X-21.72 Y-8.122
N1930 X-21.762 Y-7.782
N1935 X-21.854 Y-7.453
N1940 X-21.993 Y-7.14
N1945 X-22.176 Y-6.851
N1950 X-22.4 Y-6.591
N1955 X-24.695 Y-4.297
N1960 X-24.95 Y-4.041
N1965 X-25.129 Y-3.856
N1970 X-25.188 Y-3.803 Z-2.49
N1975 X-25.25 Y-3.756 Z-2.48
N1980 G02 X-26.008 Y-3.063 Z-2.349 I2.252 J3.224
N1985 X-26.193 Y-2.73 Z-2.3 I0.765 J0.644
N1990 G01 X-26.201 Y-2.703
N1995 X-26.86 Y-0.475
N2000 X-26.867 Y-0.451 Z-2.303
N2005 G02 X-26.9 Y-0.044 Z-2.356 I0.959 J0.283
N2010 X-26.641 Y0.95 Z-2.487 I3.902 J-0.489
N2015 G01 X-26.607 Y1.048 Z-2.5
N2020 X-26.531 Y1.347
N2025 X-26.448 Y1.646
N2030 X-26.351 Y1.946
N2035 X-26.085 Y2.544
N2040 X-25.892 Y2.858
N2045 X-25.714 Y3.143
N2050 X-25.593 Y3.324
N2055 X-25.495 Y3.442
N2060 X-25.293 Y3.686
N2065 X-25.239 Y3.742
N2070 X-24.836 Y4.202
N2075 X-24.537 Y4.605
N2080 X-24.216 Y5.119
N2085 X-23.876 Y5.775
N2090 X-23.519 Y6.626
N2095 X-23.161 Y7.714
N2100 X-22.888 Y8.827
N2105 X-22.68 Y9.954
N2110 X-22.519 Y11.089
N2115 X-22.396 Y12.228
N2120 X-22.301 Y13.37
N2125 X-22.228 Y14.514
N2130 X-22.161 Y15.658
N2135 X-21.769 Y16.734
N2140 X-21.131 Y17.686
N2145 X-20.321 Y18.496
N2150 X-19.396 Y19.172
N2155 X-18.394 Y19.729
N2160 X-17.342 Y20.183
N2165 X-16.257 Y20.551
N2170 X-15.149 Y20.846
N2175 X-14.028 Y21.082
N2180 X-12.898 Y21.271
N2185 X-11.762 Y21.421
N2190 X-10.622 Y21.54
N2195 X-9.48 Y21.634
N2200 X-8.337 Y21.709
N2205 X-8.122 Y21.72
N2210 X-7.782 Y21.762
N2215 X-7.452 Y21.854
N2220 X-7.14 Y21.993
N2225 X-6.851 Y22.176
N2230 X-6.591 Y22.4
N2235 X-4.297 Y24.695
N2240 X-4.041 Y24.95
N2245 X-3.856 Y25.129
N2250 X-3.803 Y25.188 Z-2.49
N2255 X-3.756 Y25.25 Z-2.48
N2260 G02 X-3.063 Y26.008 Z-2.349 I3.224 J-2.252
N2265 X-2.73 Y26.193 Z-2.3 I0.644 J-0.765
N2270 G01 X-2.703 Y26.201
N2275 X-0.475 Y26.86
N2280 X-0.451 Y26.867 Z-2.303
N2285 G02 X-0.044 Y26.9 Z-2.356 I0.283 J-0.959
N2290 X0.95 Y26.641 Z-2.487 I-0.489 J-3.902
N2295 G01 X1.048 Y26.607 Z-2.5
N2300 X1.347 Y26.531
N2305 X1.646 Y26.448
N2310 X1.946 Y26.351
N2315 X2.544 Y26.085
N2320 X2.858 Y25.892
N2325 X3.143 Y25.714
N2330 X3.324 Y25.593
N2335 X3.442 Y25.495
N2340 X3.686 Y25.293
N2345 X3.742 Y25.239
N2350 X4.202 Y24.836
N2355 X4.605 Y24.537
N2360 X5.119 Y24.216
N2365 X5.775 Y23.876
N2370 X6.626 Y23.519
N2375 X7.714 Y23.161
N2380 X8.827 Y22.888
N2385 X9.954 Y22.68
N2390 X11.089 Y22.519
N2395 X12.225 Y22.373
N2400 X13.268 Y21.898
N2405 X14.171 Y21.192
N2410 X14.927 Y20.332
N2415 X15.549 Y19.369
N2420 X16.055 Y18.341
N2425 X16.462 Y17.27
N2430 X16.787 Y16.171
N2435 X17.046 Y15.055
N2440 X17.25 Y13.927
N2445 X17.411 Y12.793
N2450 X17.473 Y12.241
N2455 X17.549 Y11.855
N2460 X17.689 Y11.488
N2465 X17.889 Y11.15
N2470 X18.142 Y10.849
N2475 X22.641 Y6.351
N2480 X22.719 Y6.296 Z-2.494
N2485 X22.796 Y6.242 Z-2.476
N2490 X22.871 Y6.19 Z-2.448
N2495 X22.945 Y6.165 Z-2.413
N2500 X23.014 Y6.141 Z-2.37
N2505 X23.079 Y6.119 Z-2.319
N2510 X23.138 Y6.099 Z-2.261
N2515 X23.197 Y6.094 Z-2.191
N2520 X23.248 Y6.089 Z-2.115
N2525 X23.29 Y6.085 Z-2.034
N2530 X23.322 Y6.082 Z-1.948
N2535 X23.323 Z-1.946
N2540 X23.342 Z-1.87
N2545 X23.354 Y6.083 Z-1.793
N2550 X23.358 Z-1.715
N2555 G00 Z5.
N2560 X26.887 Y-3.092
N2565 Z-0.5
N2570 G01 Z-1.5 F1000.
N2575 X26.88 Y-3.094 Z-1.621
N2580 X26.859 Y-3.1 Z-1.739
N2585 X26.825 Y-3.109 Z-1.855
N2590 X26.777 Y-3.122 Z-1.965
N2595 X26.717 Y-3.138 Z-2.068
N2600 X26.645 Y-3.158 Z-2.163
N2605 X26.562 Y-3.18 Z-2.249
N2610 X26.471 Y-3.205 Z-2.323
N2615 X26.371 Y-3.232 Z-2.385
N2620 X26.265 Y-3.261 Z-2.435
N2625 X26.153 Y-3.291 Z-2.471
N2630 X26.039 Y-3.322 Z-2.493
N2635 X25.922 Y-3.354 Z-2.5
N2640 G03 X25.239 Y-3.742 I0.415 J-1.527
N2645 G01 X24.95 Y-4.041
N2650 X23.753 Y-5.238
N2655 X21.701 Y-7.29
N2660 X21.273 Y-7.764
N2665 X20.917 Y-8.227
N2670 X20.55 Y-8.794
N2675 X20.163 Y-9.512
N2680 X19.702 Y-10.562
N2685 X19.281 Y-11.627
N2690 X18.7 Y-12.615
N2695 X17.972 Y-13.5
N2700 X17.123 Y-14.269
N2705 X16.184 Y-14.927
N2710 X15.182 Y-15.482
N2715 X14.134 Y-15.945
N2720 X13.054 Y-16.329
N2725 X12.707 Y-16.461
N2730 X12.386 Y-16.649
N2735 X12.102 Y-16.889
N2740 X6.591 Y-22.401
N2745 X6.536 Y-22.479 Z-2.494
N2750 X6.482 Y-22.557 Z-2.476
N2755 X6.43 Y-22.631 Z-2.448
N2760 X6.405 Y-22.705 Z-2.413
N2765 X6.381 Y-22.774 Z-2.37
N2770 X6.359 Y-22.839 Z-2.319
N2775 X6.339 Y-22.898 Z-2.261
N2780 X6.334 Y-22.957 Z-2.191
N2785 X6.329 Y-23.008 Z-2.115
N2790 X6.325 Y-23.05 Z-2.034
N2795 X6.322 Y-23.082 Z-1.948
N2800 Y-23.083 Z-1.946
N2805 Y-23.102 Z-1.87
N2810 Y-23.114 Z-1.793
N2815 Y-23.118 Z-1.715
N2820 G00 Z5.
N2825 X-3.092 Y-26.887
N2830 Z-0.5
N2835 G01 Z-1.5 F1000.
N2840 X-3.094 Y-26.88 Z-1.621
N2845 X-3.1 Y-26.859 Z-1.739
N2850 X-3.109 Y-26.825 Z-1.855
N2855 X-3.122 Y-26.777 Z-1.965
N2860 X-3.138 Y-26.717 Z-2.068
N2865 X-3.158 Y-26.645 Z-2.163
N2870 X-3.18 Y-26.562 Z-2.249
N2875 X-3.205 Y-26.471 Z-2.323
N2880 X-3.232 Y-26.371 Z-2.385
N2885 X-3.261 Y-26.265 Z-2.435
N2890 X-3.291 Y-26.153 Z-2.471
N2895 X-3.322 Y-26.039 Z-2.493
N2900 X-3.354 Y-25.922 Z-2.5
N2905 G03 X-3.742 Y-25.239 I-1.527 J-0.415
N2910 G01 X-4.041 Y-24.95
N2915 X-5.238 Y-23.753
N2920 X-7.29 Y-21.701
N2925 X-7.762 Y-21.275
N2930 X-8.225 Y-20.919
N2935 X-8.792 Y-20.552
N2940 X-9.51 Y-20.165
N2945 X-10.559 Y-19.704
N2950 X-11.625 Y-19.283
N2955 X-12.613 Y-18.703
N2960 X-13.498 Y-17.974
N2965 X-14.268 Y-17.125
N2970 X-14.926 Y-16.187
N2975 X-15.481 Y-15.185
N2980 X-15.944 Y-14.137
N2985 X-16.328 Y-13.057
N2990 X-16.46 Y-12.708
N2995 X-16.65 Y-12.386
N3000 X-16.89 Y-12.101
N3005 X-22.4 Y-6.591
N3010 X-22.478 Y-6.537 Z-2.494
N3015 X-22.556 Y-6.483 Z-2.476
N3020 X-22.63 Y-6.431 Z-2.448
N3025 X-22.704 Y-6.406 Z-2.413
N3030 X-22.773 Y-6.382 Z-2.37
N3035 X-22.838 Y-6.36 Z-2.319
N3040 X-22.897 Y-6.34 Z-2.261
N3045 X-22.956 Y-6.335 Z-2.191
N3050 X-23.007 Y-6.33 Z-2.115
N3055 X-23.049 Y-6.326 Z-2.034
N3060 X-23.081 Y-6.323 Z-1.948
N3065 X-23.082 Z-1.946
N3070 X-23.101 Z-1.87
N3075 X-23.113 Z-1.793
N3080 X-23.117 Z-1.715
N3085 G00 Z5.
N3090 X-26.887 Y3.092
N3095 Z-0.5
N3100 G01 Z-1.5 F1000.
N3105 X-26.88 Y3.094 Z-1.621
N3110 X-26.859 Y3.1 Z-1.739
N3115 X-26.825 Y3.109 Z-1.855
N3120 X-26.777 Y3.122 Z-1.965
N3125 X-26.717 Y3.138 Z-2.068
N3130 X-26.645 Y3.158 Z-2.163
N3135 X-26.562 Y3.18 Z-2.249
N3140 X-26.471 Y3.205 Z-2.323
N3145 X-26.371 Y3.232 Z-2.385
N3150 X-26.265 Y3.261 Z-2.435
N3155 X-26.153 Y3.291 Z-2.471
N3160 X-26.039 Y3.322 Z-2.493
N3165 X-25.922 Y3.354 Z-2.5
N3170 G03 X-25.239 Y3.742 I-0.415 J1.527
N3175 G01 X-24.95 Y4.041
N3180 X-23.753 Y5.238
N3185 X-21.701 Y7.29
N3190 X-21.273 Y7.764
N3195 X-20.917 Y8.227
N3200 X-20.55 Y8.794
N3205 X-20.163 Y9.512
N3210 X-19.702 Y10.562
N3215 X-19.281 Y11.627
N3220 X-18.7 Y12.615
N3225 X-17.971 Y13.5
N3230 X-17.122 Y14.269
N3235 X-16.184 Y14.927
N3240 X-15.181 Y15.482
N3245 X-14.133 Y15.945
N3250 X-13.053 Y16.328
N3255 X-12.707 Y16.46
N3260 X-12.388 Y16.648
N3265 X-12.104 Y16.887
N3270 X-6.591 Y22.4
N3275 X-6.537 Y22.478 Z-2.494
N3280 X-6.483 Y22.556 Z-2.476
N3285 X-6.43 Y22.631 Z-2.448
N3290 X-6.406 Y22.704 Z-2.413
N3295 X-6.382 Y22.773 Z-2.37
N3300 X-6.36 Y22.838 Z-2.319
N3305 X-6.34 Y22.897 Z-2.261
N3310 X-6.334 Y22.956 Z-2.191
N3315 X-6.33 Y23.007 Z-2.115
N3320 X-6.326 Y23.049 Z-2.034
N3325 X-6.323 Y23.081 Z-1.948
N3330 Y23.082 Z-1.946
N3335 Y23.101 Z-1.87
N3340 Y23.113 Z-1.793
N3345 Y23.117 Z-1.715
N3350 G00 Z5.
N3355 X3.092 Y26.887
N3360 Z-0.5
N3365 G01 Z-1.5 F1000.
N3370 X3.094 Y26.88 Z-1.621
N3375 X3.1 Y26.859 Z-1.739
N3380 X3.109 Y26.825 Z-1.855
N3385 X3.122 Y26.777 Z-1.965
N3390 X3.138 Y26.717 Z-2.068
N3395 X3.158 Y26.645 Z-2.163
N3400 X3.18 Y26.562 Z-2.249
N3405 X3.205 Y26.471 Z-2.323
N3410 X3.232 Y26.371 Z-2.385
N3415 X3.261 Y26.265 Z-2.435
N3420 X3.291 Y26.153 Z-2.471
N3425 X3.322 Y26.039 Z-2.493
N3430 X3.354 Y25.922 Z-2.5
N3435 G03 X3.742 Y25.239 I1.527 J0.415
N3440 G01 X4.041 Y24.95
N3445 X5.238 Y23.753
N3450 X7.29 Y21.701
N3455 X8.14 Y20.933
N3460 X9.001 Y20.176
N3465 X9.785 Y19.341
N3470 X10.127 Y18.894
N3475 X10.191 Y18.813
N3480 X10.26 Y18.735
N3485 X10.331 Y18.66
N3490 G03 X11.744 Y18.709 Z-2.3 I0.682 J0.731
N3495 X11.72 Y20.099 I-0.731 J0.683
N3500 G01 X8.729 Y23.09
N3505 G03 X7.339 Y23.114 I-0.707 J-0.707
N3510 X7.29 Y21.701 Z-2.5 I0.683 J-0.731
N3515 G01 X18.142 Y10.849
N3520 X18.22 Y10.795 Z-2.494
N3525 X18.298 Y10.741 Z-2.476
N3530 X18.373 Y10.688 Z-2.448
N3535 X18.446 Y10.663 Z-2.413
N3540 X18.515 Y10.64 Z-2.37
N3545 X18.58 Y10.618 Z-2.319
N3550 X18.639 Y10.598 Z-2.261
N3555 X18.698 Y10.592 Z-2.191
N3560 X18.75 Y10.588 Z-2.115
N3565 X18.791 Y10.584 Z-2.034
N3570 X18.824 Y10.581 Z-1.948
N3575 Z-1.946
N3580 X18.843 Z-1.87
N3585 X18.855 Z-1.793
N3590 X18.859 Z-1.715
N3595 G00 Z5.
N3600 X23.36 Y-6.667
N3605 Z-0.5
N3610 G01 Z-1.5 F1000.
N3615 X23.353 Y-6.669 Z-1.621
N3620 X23.332 Y-6.674 Z-1.739
N3625 X23.297 Y-6.683 Z-1.855
N3630 X23.249 Y-6.696 Z-1.965
N3635 X23.188 Y-6.711 Z-2.068
N3640 X23.116 Y-6.729 Z-2.163
N3645 X23.033 Y-6.75 Z-2.249
N3650 X22.941 Y-6.774 Z-2.323
N3655 X22.841 Y-6.799 Z-2.385
N3660 X22.734 Y-6.826 Z-2.435
N3665 X22.623 Y-6.855 Z-2.471
N3670 X22.508 Y-6.884 Z-2.493
N3675 X22.391 Y-6.914 Z-2.5
N3680 G03 X21.701 Y-7.29 I0.39 J-1.534
N3685 G01 X12.102 Y-16.889
N3690 X12.048 Y-16.967 Z-2.494
N3695 X11.994 Y-17.045 Z-2.476
N3700 X11.941 Y-17.12 Z-2.448
N3705 X11.917 Y-17.193 Z-2.413
N3710 X11.893 Y-17.262 Z-2.37
N3715 X11.871 Y-17.327 Z-2.319
N3720 X11.851 Y-17.386 Z-2.261
N3725 X11.846 Y-17.445 Z-2.191
N3730 X11.841 Y-17.496 Z-2.115
N3735 X11.837 Y-17.538 Z-2.034
N3740 X11.834 Y-17.57 Z-1.948
N3745 Y-17.571 Z-1.946
N3750 Y-17.59 Z-1.87
N3755 Y-17.602 Z-1.793
N3760 Y-17.606 Z-1.715
N3765 G00 Z5.
N3770 X-6.667 Y-23.36
N3775 Z-0.5
N3780 G01 Z-1.5 F1000.
N3785 X-6.669 Y-23.353 Z-1.621
N3790 X-6.674 Y-23.332 Z-1.739
N3795 X-6.683 Y-23.297 Z-1.855
N3800 X-6.696 Y-23.249 Z-1.965
N3805 X-6.711 Y-23.188 Z-2.068
N3810 X-6.729 Y-23.116 Z-2.163
N3815 X-6.75 Y-23.033 Z-2.249
N3820 X-6.774 Y-22.941 Z-2.323
N3825 X-6.799 Y-22.841 Z-2.385
N3830 X-6.826 Y-22.734 Z-2.435
N3835 X-6.855 Y-22.623 Z-2.471
N3840 X-6.884 Y-22.508 Z-2.493
N3845 X-6.914 Y-22.391 Z-2.5
N3850 G03 X-7.29 Y-21.701 I-1.534 J-0.39
N3855 G01 X-16.89 Y-12.101
N3860 X-16.969 Y-12.046 Z-2.494
N3865 X-17.046 Y-11.992 Z-2.476
N3870 X-17.121 Y-11.94 Z-2.448
N3875 X-17.194 Y-11.915 Z-2.413
N3880 X-17.264 Y-11.892 Z-2.37
N3885 X-17.328 Y-11.87 Z-2.319
N3890 X-17.387 Y-11.85 Z-2.261
N3895 X-17.447 Y-11.844 Z-2.191
N3900 X-17.498 Y-11.839 Z-2.115
N3905 X-17.54 Y-11.835 Z-2.034
N3910 X-17.572 Y-11.832 Z-1.948
N3915 Z-1.946
N3920 X-17.592 Y-11.833 Z-1.87
N3925 X-17.603 Z-1.793
N3930 X-17.607 Z-1.715
N3935 G00 Z5.
N3940 X-23.36 Y6.667
N3945 Z-0.5
N3950 G01 Z-1.5 F1000.
N3955 X-23.353 Y6.669 Z-1.621
N3960 X-23.332 Y6.674 Z-1.739
N3965 X-23.297 Y6.683 Z-1.855
N3970 X-23.249 Y6.696 Z-1.965
N3975 X-23.188 Y6.711 Z-2.068
N3980 X-23.116 Y6.729 Z-2.163
N3985 X-23.033 Y6.75 Z-2.249
N3990 X-22.941 Y6.774 Z-2.323
N3995 X-22.841 Y6.799 Z-2.385
N4000 X-22.734 Y6.826 Z-2.435
N4005 X-22.623 Y6.855 Z-2.471
N4010 X-22.508 Y6.884 Z-2.493
N4015 X-22.391 Y6.914 Z-2.5
N4020 G03 X-21.701 Y7.29 I-0.39 J1.534
N4025 G01 X-12.104 Y16.887
N4030 X-12.05 Y16.965 Z-2.494
N4035 X-11.996 Y17.043 Z-2.476
N4040 X-11.943 Y17.118 Z-2.448
N4045 X-11.919 Y17.191 Z-2.413
N4050 X-11.895 Y17.26 Z-2.37
N4055 X-11.873 Y17.325 Z-2.319
N4060 X-11.853 Y17.384 Z-2.261
N4065 X-11.848 Y17.443 Z-2.191
N4070 X-11.843 Y17.494 Z-2.115
N4075 X-11.839 Y17.536 Z-2.034
N4080 X-11.836 Y17.568 Z-1.948
N4085 Y17.569 Z-1.946
N4090 Y17.588 Z-1.87
N4095 Y17.6 Z-1.793
N4100 Y17.604 Z-1.715
N4105 G00 Z5.
N4110 X-26.017 Y-10.472
N4115 Z1.
N4120 G01 Z0. F1000.
N4125 X-26.015 Y-10.465 Z-0.121
N4130 X-26.01 Y-10.444 Z-0.239
N4135 X-26.001 Y-10.409 Z-0.355
N4140 X-25.988 Y-10.361 Z-0.465
N4145 X-25.973 Y-10.3 Z-0.568
N4150 X-25.954 Y-10.228 Z-0.663
N4155 X-25.933 Y-10.146 Z-0.749
N4160 X-25.91 Y-10.053 Z-0.823
N4165 X-25.884 Y-9.953 Z-0.885
N4170 X-25.857 Y-9.847 Z-0.935
N4175 X-25.828 Y-9.735 Z-0.971
N4180 X-25.799 Y-9.62 Z-0.993
N4185 X-25.769 Y-9.503 Z-1.
N4190 G03 X-24.986 Y-4.059 I-24.731 J6.335
N4195 G01 Y-3.773
N4200 X-24.951 Y-3.488
N4205 X-24.881 Y-3.21
N4210 X-24.468 Y-2.142
N4215 X-23.782 Y-1.223
N4220 X-23.067 Y-0.328
N4225 X-22.329 Y0.548
N4230 X-21.573 Y1.41
N4235 X-20.805 Y2.26
N4240 X-20.027 Y3.101
N4245 X-19.241 Y3.935
N4250 X-18.449 Y4.764
N4255 X-17.653 Y5.588
N4260 X-16.854 Y6.409
N4265 X-16.052 Y7.228
N4270 X-15.248 Y8.044
N4275 X-14.443 Y8.859
N4280 X-13.637 Y9.673
N4285 X-12.021 Y11.299
N4290 X-10.403 Y12.923
N4295 X-7.975 Y15.356
N4300 X-3.925 Y19.408
N4305 X-3.44 Y19.713
N4310 X-2.36 Y20.096
N4315 X-1.215 Y20.152
N4320 X-0.082 Y19.983
N4325 X1.015 Y19.65
N4330 X2.068 Y19.198
N4335 X3.078 Y18.657
N4340 X4.05 Y18.051
N4345 X4.99 Y17.395
N4350 X5.902 Y16.701
N4355 X6.793 Y15.98
N4360 X7.665 Y15.238
N4365 X8.524 Y14.479
N4370 X9.372 Y13.708
N4375 X10.212 Y12.928
N4380 X11.044 Y12.141
N4385 X11.872 Y11.348
N4390 X12.695 Y10.551
N4395 X13.516 Y9.752
N4400 X14.334 Y8.949
N4405 X15.15 Y8.145
N4410 X15.965 Y7.339
N4415 X16.779 Y6.533
N4420 X18.404 Y4.917
N4425 X19.216 Y4.108
N4430 X19.4 Y3.889
N4435 X19.713 Y3.408
N4440 X20.088 Y2.326
N4445 X20.139 Y1.181
N4450 X19.966 Y0.048
N4455 X19.631 Y-1.047
N4460 X19.177 Y-2.1
N4465 X18.634 Y-3.109
N4470 X18.027 Y-4.081
N4475 X17.37 Y-5.019
N4480 X16.676 Y-5.931
N4485 X15.954 Y-6.821
N4490 X15.211 Y-7.694
N4495 X14.452 Y-8.553
N4500 X13.681 Y-9.4
N4505 X12.901 Y-10.239
N4510 X12.114 Y-11.072
N4515 X11.321 Y-11.899
N4520 X10.524 Y-12.723
N4525 X9.724 Y-13.543
N4530 X8.922 Y-14.361
N4535 X8.118 Y-15.178
N4540 X7.312 Y-15.993
N4545 X6.505 Y-16.806
N4550 X4.889 Y-18.432
N4555 X4.081 Y-19.243
N4560 X3.859 Y-19.425
N4565 X3.374 Y-19.729
N4570 X2.286 Y-20.092
N4575 X1.141 Y-20.134
N4580 X0.01 Y-19.955
N4585 X-1.085 Y-19.615
N4590 X-2.135 Y-19.158
N4595 X-3.144 Y-18.613
N4600 X-4.114 Y-18.004
N4605 X-5.052 Y-17.345
N4610 X-5.963 Y-16.65
N4615 X-6.853 Y-15.928
N4620 X-7.725 Y-15.184
N4625 X-8.583 Y-14.425
N4630 X-9.43 Y-13.654
N4635 X-10.269 Y-12.873
N4640 X-11.101 Y-12.086
N4645 X-11.929 Y-11.293
N4650 X-12.752 Y-10.496
N4655 X-13.572 Y-9.696
N4660 X-14.39 Y-8.893
N4665 X-15.207 Y-8.089
N4670 X-16.225 Y-7.082
N4675 X-16.579 Y-6.631
N4680 X-17.054 Y-5.588
N4685 X-17.19 Y-4.45
N4690 X-17.088 Y-3.309
N4695 X-16.811 Y-2.197
N4700 X-16.405 Y-1.126
N4705 X-15.902 Y-0.096
N4710 X-15.325 Y0.894
N4715 X-14.693 Y1.85
N4720 X-14.02 Y2.777
N4725 X-13.475 Y3.474
N4730 X-13.287 Y3.755
N4735 X-13.141 Y4.06
N4740 X-13.041 Y4.383
N4745 X-12.989 Y4.718
N4750 X-12.97 Y4.939
N4755 X-12.938 Y5.238
N4760 X-12.904 Y5.538
N4765 X-12.809 Y6.136
N4770 X-12.751 Y6.436
N4775 X-12.608 Y7.034
N4780 X-12.511 Y7.334
N4785 X-12.385 Y7.633
N4790 X-12.248 Y7.932
N4795 X-11.944 Y8.531
N4800 X-11.823 Y8.763
N4805 X-11.788 Y8.83
N4810 X-11.614 Y9.13
N4815 X-11.524 Y9.272
N4820 X-11.419 Y9.429
N4825 X-11.179 Y9.728
N4830 X-10.936 Y10.028
N4835 X-10.626 Y10.342
N4840 X-10.327 Y10.642
N4845 X-10.028 Y10.936
N4850 X-9.671 Y11.225
N4855 X-9.429 Y11.419
N4860 X-9.272 Y11.524
N4865 X-9.13 Y11.614
N4870 X-8.83 Y11.788
N4875 X-8.763 Y11.823
N4880 X-8.531 Y11.944
N4885 X-7.932 Y12.248
N4890 X-7.633 Y12.385
N4895 X-7.545 Y12.422
N4900 X-6.513 Y12.92
N4905 X-5.519 Y13.491
N4910 X-4.513 Y14.04
N4915 X-3.408 Y14.345
N4920 X-2.265 Y14.427
N4925 X-1.124 Y14.323
N4930 X-0.007 Y14.07
N4935 X1.077 Y13.698
N4940 X2.124 Y13.232
N4945 X2.476 Y13.104
N4950 X2.843 Y13.026
N4955 X3.217 Y13.
N4960 X3.742
N4965 X4.041 Y12.999
N4970 X4.64 Y12.995
N4975 X4.939 Y12.97
N4980 X5.238 Y12.938
N4985 X5.538 Y12.904
N4990 X6.136 Y12.809
N4995 X6.436 Y12.751
N5000 X7.034 Y12.608
N5005 X7.334 Y12.511
N5010 X7.633 Y12.385
N5015 X7.932 Y12.248
N5020 X8.531 Y11.944
N5025 X8.763 Y11.823
N5030 X8.83 Y11.788
N5035 X9.13 Y11.614
N5040 X9.272 Y11.524
N5045 X9.429 Y11.419
N5050 X9.728 Y11.179
N5055 X10.028 Y10.936
N5060 X10.342 Y10.626
N5065 X10.642 Y10.327
N5070 X10.936 Y10.028
N5075 X11.225 Y9.671
N5080 X11.419 Y9.429
N5085 X11.524 Y9.272
N5090 X11.614 Y9.13
N5095 X11.788 Y8.83
N5100 X11.823 Y8.763
N5105 X11.944 Y8.531
N5110 X12.248 Y7.932
N5115 X12.385 Y7.633
N5120 X12.422 Y7.545
N5125 X12.92 Y6.513
N5130 X13.489 Y5.518
N5135 X14.036 Y4.511
N5140 X14.34 Y3.406
N5145 X14.422 Y2.263
N5150 X14.319 Y1.122
N5155 X14.066 Y0.004
N5160 X13.694 Y-1.08
N5165 X13.228 Y-2.127
N5170 X13.102 Y-2.472
N5175 X13.026 Y-2.832
N5180 X13. Y-3.199
N5185 Y-3.742
N5190 X12.999 Y-4.041
N5195 X12.995 Y-4.64
N5200 X12.97 Y-4.939
N5205 X12.938 Y-5.238
N5210 X12.904 Y-5.538
N5215 X12.809 Y-6.136
N5220 X12.751 Y-6.436
N5225 X12.608 Y-7.034
N5230 X12.511 Y-7.334
N5235 X12.385 Y-7.633
N5240 X12.248 Y-7.932
N5245 X11.944 Y-8.531
N5250 X11.823 Y-8.763
N5255 X11.788 Y-8.83
N5260 X11.614 Y-9.13
N5265 X11.524 Y-9.272
N5270 X11.419 Y-9.429
N5275 X11.179 Y-9.728
N5280 X10.936 Y-10.028
N5285 X10.626 Y-10.342
N5290 X10.327 Y-10.642
N5295 X10.028 Y-10.936
N5300 X9.671 Y-11.225
N5305 X9.429 Y-11.419
N5310 X9.272 Y-11.524
N5315 X9.13 Y-11.614
N5320 X8.83 Y-11.788
N5325 X8.763 Y-11.823
N5330 X8.531 Y-11.944
N5335 X7.932 Y-12.248
N5340 X7.633 Y-12.385
N5345 X7.545 Y-12.422
N5350 X6.513 Y-12.92
N5355 X5.518 Y-13.489
N5360 X4.511 Y-14.035
N5365 X3.406 Y-14.339
N5370 X2.263 Y-14.421
N5375 X1.121 Y-14.318
N5380 X0.004 Y-14.065
N5385 X-1.08 Y-13.693
N5390 X-2.127 Y-13.227
N5395 X-2.471 Y-13.102
N5400 X-2.83 Y-13.026
N5405 X-3.195 Y-13.
N5410 X-3.742
N5415 X-4.041 Y-12.999
N5420 X-4.64 Y-12.995
N5425 X-4.939 Y-12.97
N5430 X-5.238 Y-12.938
N5435 X-5.538 Y-12.904
N5440 X-6.136 Y-12.809
N5445 X-6.436 Y-12.751
N5450 X-7.034 Y-12.608
N5455 X-7.334 Y-12.511
N5460 X-7.633 Y-12.385
N5465 X-7.932 Y-12.248
N5470 X-8.531 Y-11.944
N5475 X-8.763 Y-11.823
N5480 X-8.83 Y-11.788
N5485 X-9.13 Y-11.614
N5490 X-9.272 Y-11.524
N5495 X-9.429 Y-11.419
N5500 X-9.728 Y-11.179
N5505 X-10.028 Y-10.936
N5510 X-10.342 Y-10.626
N5515 X-10.642 Y-10.327
N5520 X-10.936 Y-10.028
N5525 X-11.225 Y-9.671
N5530 X-11.419 Y-9.429
N5535 X-11.524 Y-9.272
N5540 X-11.614 Y-9.13
N5545 X-11.788 Y-8.83
N5550 X-11.823 Y-8.763
N5555 X-11.944 Y-8.531
N5560 X-12.248 Y-7.932
N5565 X-12.385 Y-7.633
N5570 X-12.511 Y-7.334
N5575 X-12.608 Y-7.034
N5580 X-12.751 Y-6.436
N5585 X-12.809 Y-6.136
N5590 X-12.904 Y-5.538
N5595 X-12.938 Y-5.238
N5600 X-12.97 Y-4.939
N5605 X-12.995 Y-4.64
N5610 X-12.999 Y-4.041
N5615 X-13. Y-3.442
N5620 Y3.742
N5625 X-12.999 Y4.041
N5630 X-12.995 Y4.64
N5635 X-12.989 Y4.718
N5640 G03 X-13.247 Y5.438 Z-0.9 I-0.999 J0.048
N5645 G02 X-13.721 Y6.063 Z-0.8 I3.249 J2.952
N5650 X-14.383 Y8.6 I3.722 J2.328
N5655 X-14.201 Y9.131 I0.999 J-0.048
N5660 G01 X-12.09 Y12.11
N5665 G02 X-11.651 Y12.458 I0.816 J-0.578
N5670 X-9.057 Y12.679 I1.652 J-4.068
N5675 X-8.29 Y12.435 Z-0.903 I-0.941 J-4.288
N5680 G03 X-7.545 Y12.422 Z-1. I0.389 J0.921
N5685 G01 X-7.334 Y12.511
N5690 X-7.034 Y12.608
N5695 X-6.436 Y12.751
N5700 X-6.136 Y12.809
N5705 X-5.538 Y12.904
N5710 X-5.238 Y12.938
N5715 X-4.939 Y12.97
N5720 X-4.64 Y12.995
N5725 X-4.041 Y12.999
N5730 X-3.442 Y13.
N5735 X3.217
N5740 G03 X3.913 Y13.317 Z-0.9 I-0.035 J0.999
N5745 G02 X4.491 Y13.848 Z-0.8 I3.704 J-3.454
N5750 X7.441 Y14.925 I3.127 J-3.984
N5755 X7.99 Y14.783 I0.035 J-0.999
N5760 G01 X11.781 Y12.511
N5765 G02 X12.165 Y12.094 I-0.514 J-0.858
N5770 X12.62 Y9.074 I-4.547 J-2.23
N5775 X12.41 Y8.225 Z-0.912 I-5.003 J0.789
N5780 G03 X12.422 Y7.545 Z-1. I0.946 J-0.323
N5785 G01 X12.511 Y7.334
N5790 X12.608 Y7.034
N5795 X12.751 Y6.436
N5800 X12.809 Y6.136
N5805 X12.904 Y5.538
N5810 X12.938 Y5.238
N5815 X12.97 Y4.939
N5820 X12.995 Y4.64
N5825 X12.999 Y4.041
N5830 X13. Y3.442
N5835 Y-3.199
N5840 G03 X13.317 Y-3.896 Z-0.9 I0.999 J0.035
N5845 G02 X13.848 Y-4.473 Z-0.8 I-3.46 J-3.711
N5850 X14.928 Y-7.429 I-3.99 J-3.133
N5855 X14.786 Y-7.977 I-0.999 J-0.035
N5860 G01 X12.515 Y-11.774
N5865 G02 X12.098 Y-12.158 I-0.858 J0.513
N5870 X9.074 Y-12.619 I-2.241 J4.552
N5875 X8.223 Y-12.41 Z-0.912 I0.783 J5.013
N5880 G03 X7.545 Y-12.422 Z-1. I-0.322 J-0.947
N5885 G01 X7.334 Y-12.511
N5890 X7.034 Y-12.608
N5895 X6.436 Y-12.751
N5900 X6.136 Y-12.809
N5905 X5.538 Y-12.904
N5910 X5.238 Y-12.938
N5915 X4.939 Y-12.97
N5920 X4.64 Y-12.995
N5925 X4.041 Y-12.999
N5930 X3.442 Y-13.
N5935 X-3.195
N5940 G03 X-3.892 Y-13.317 I0.035 J-0.999
N5945 G01 X-3.974 Y-13.406 Z-0.993
N5950 X-4.055 Y-13.492 Z-0.971
N5955 X-4.134 Y-13.577 Z-0.935
N5960 X-4.209 Y-13.657 Z-0.885
N5965 X-4.279 Y-13.733 Z-0.823
N5970 X-4.344 Y-13.802 Z-0.749
N5975 X-4.402 Y-13.865 Z-0.663
N5980 X-4.453 Y-13.919 Z-0.568
N5985 X-4.496 Y-13.965 Z-0.465
N5990 X-4.53 Y-14.001 Z-0.355
N5995 X-4.554 Y-14.027 Z-0.239
N6000 X-4.569 Y-14.043 Z-0.121
N6005 X-4.574 Y-14.049 Z0.
N6010 G00 Z15.

(2D POCKET1)
N6015 G00 X6.09 Y-12.673
N6020 Z15.
N6025 Z5.
N6030 G01 Z1. F333.
N6035 X6.083 Y-12.671 Z0.879 F1000.
N6040 X6.062 Y-12.664 Z0.761
N6045 X6.028 Y-12.653 Z0.645
N6050 X5.981 Y-12.638 Z0.535
N6055 X5.922 Y-12.618 Z0.432
N6060 X5.851 Y-12.595 Z0.337
N6065 X5.77 Y-12.569 Z0.251
N6070 X5.679 Y-12.539 Z0.177
N6075 X5.581 Y-12.508 Z0.115
N6080 X5.476 Y-12.474 Z0.065
N6085 X5.367 Y-12.438 Z0.029
N6090 X5.254 Y-12.401 Z0.007
N6095 X5.139 Y-12.364 Z0.
N6100 G03 X0. Y-11.55 I-5.139 J-15.816
N6105 G01 X-4.5
N6110 G02 X-5.284 Y-11.482 J4.576
N6115 G03 X-6.061 Y-11.353 I-8.915 J-51.253
N6120 G02 X-7.113 Y-11.025 I0.596 J3.76
N6125 X-8.102 Y-10.536 I20.373 J42.413
N6130 X-9.002 Y-9.898 I1.728 J3.392
N6135 X-9.791 Y-9.127 I32.479 J34.039
N6140 X-10.45 Y-8.243 I2.692 J2.692
N6145 X-10.962 Y-7.266 I41.411 J22.338
N6150 X-11.42 Y-5.918 I4.424 J2.254
N6155 X-11.55 Y-4.5 I7.638 J1.418
N6160 G01 Y4.5
N6165 G02 X-11.482 Y5.284 I4.576
N6170 G03 X-11.353 Y6.061 I-51.253 J8.915
N6175 G02 X-11.025 Y7.113 I3.76 J-0.596
N6180 X-10.536 Y8.102 I42.413 J-20.373
N6185 X-9.898 Y9.002 I3.392 J-1.728
N6190 X-9.127 Y9.791 I34.039 J-32.479
N6195 X-8.243 Y10.45 I2.692 J-2.692
N6200 X-7.266 Y10.962 I22.338 J-41.411
N6205 X-5.918 Y11.42 I2.254 J-4.424
N6210 X-4.5 Y11.55 I1.418 J-7.638
N6215 G01 X4.5
N6220 G02 X5.284 Y11.482 J-4.576
N6225 G03 X6.061 Y11.353 I8.915 J51.253
N6230 G02 X7.113 Y11.025 I-0.596 J-3.76
N6235 X8.102 Y10.536 I-20.373 J-42.413
N6240 X9.002 Y9.898 I-1.728 J-3.392
N6245 X9.791 Y9.127 I-32.479 J-34.039
N6250 X10.45 Y8.243 I-2.692 J-2.692
N6255 X10.962 Y7.266 I-41.411 J-22.338
N6260 X11.42 Y5.918 I-4.424 J-2.254
N6265 X11.55 Y4.5 I-7.638 J-1.418
N6270 G01 Y-4.5
N6275 G02 X11.482 Y-5.284 I-4.576
N6280 G03 X11.353 Y-6.061 I51.253 J-8.915
N6285 G02 X11.025 Y-7.113 I-3.76 J0.596
N6290 X10.536 Y-8.102 I-42.413 J20.373
N6295 X9.898 Y-9.002 I-3.392 J1.728
N6300 X9.127 Y-9.791 I-34.039 J32.479
N6305 X8.243 Y-10.45 I-2.692 J2.692
N6310 X7.266 Y-10.962 I-22.338 J41.411
N6315 X5.918 Y-11.42 I-2.254 J4.424
N6320 X4.5 Y-11.55 I-1.418 J7.638
N6325 G01 X0.
N6330 G02 X-5.734 Y-5.762 J5.734
N6335 G03 X-5.695 Y2.386 I-858.096 J8.147
N6340 G01 Y4.252
N6345 X-5.691 Y4.358
N6350 X-5.678 Y4.462
N6355 X-5.665 Y4.547
N6360 G02 X-4.547 Y5.665 I1.328 J-0.21
N6365 G01 X-4.462 Y5.678
N6370 X-4.358 Y5.691
N6375 X-4.252 Y5.695
N6380 X4.252
N6385 X4.358 Y5.691
N6390 X4.462 Y5.678
N6395 X4.547 Y5.665
N6400 G02 X5.665 Y4.547 I-0.21 J-1.328
N6405 G01 X5.678 Y4.462
N6410 X5.691 Y4.358
N6415 X5.695 Y4.252
N6420 Y-4.252
N6425 X5.691 Y-4.358
N6430 X5.678 Y-4.462
N6435 X5.665 Y-4.547
N6440 G02 X4.547 Y-5.665 I-1.328 J0.21
N6445 G01 X4.462 Y-5.678
N6450 X4.358 Y-5.691
N6455 X4.252 Y-5.695
N6460 X-4.252
N6465 X-4.358 Y-5.691
N6470 X-4.462 Y-5.678
N6475 X-4.547 Y-5.665
N6480 G02 X-5.665 Y-4.547 I0.21 J1.328
N6485 G01 X-5.678 Y-4.462
N6490 X-5.691 Y-4.358
N6495 X-5.695 Y-4.252
N6500 Y2.386
N6505 G02 X-3.167 Y3.134 I1.375
N6510 G03 X-0.85 Y1.876 I2.317 J1.504
N6515 G01 X1.557
N6520 G02 X1.876 Y1.557 J-0.319
N6525 G01 Y-1.557
N6530 G02 X1.557 Y-1.876 I-0.319
N6535 G01 X-1.557
N6540 G02 X-1.876 Y-1.557 J0.319
N6545 G01 Y1.557
N6550 G02 X-1.557 Y1.876 I0.319
N6555 G01 X-0.85
N6560 G02 X-0.595 Y1.835 Z0.034 I-0.025 J-0.975
N6565 G01 X-0.482 Y1.794 Z0.084
N6570 X-0.375 Y1.738 Z0.134
N6575 X-0.289 Y1.681 Z0.213
N6580 X-0.21 Y1.614 Z0.293
N6585 X-0.154 Y1.558 Z0.396
N6590 X-0.103 Y1.497 Z0.5
N6595 X-0.046 Y1.415 Z0.741
N6600 X-0.029 Y1.385 Z1.
N6605 G00 Z15.
N6610 X5.197 Y-24.35
N6615 Z5.
N6620 G01 Z-0.5 F333.
N6625 G18 G03 X4.197 Z-1.5 I-1. F1000.
N6630 G01 X3.785
N6635 X-3.785
N6640 G17 G03 X-3.831 Y-27.299 J-1.475
N6645 G01 X-0.581 Y-27.4
N6650 G03 X0. Y-27.3 I0.046 J1.474
N6655 G01 X3.785 Y-25.825
N6660 G03 X4.12 Y-25.641 I-0.536 J1.374
N6665 G01 X13.315 Y-18.912
N6670 G03 X11.685 Y-16.458 I-0.871 J1.19
N6675 G02 X4.5 Y-18.45 I-7.185 J11.958
N6680 G01 X-4.5
N6685 G02 X-11.678 Y-16.461 J13.95
N6690 G01 X-11.727 Y-16.428
N6695 X-11.772 Y-16.389
N6700 X-24.201 Y-4.141
N6705 G02 X-24.35 Y-3.785 I0.351 J0.356
N6710 G01 Y3.785
N6715 G03 X-27.299 Y3.831 I-1.475
N6720 G01 X-27.4 Y0.581
N6725 G03 X-27.3 Y0. I1.474 J-0.046
N6730 G01 X-25.825 Y-3.785
N6735 G03 X-25.641 Y-4.12 I1.374 J0.536
N6740 G01 X-18.912 Y-13.315
N6745 G03 X-16.458 Y-11.685 I1.19 J0.871
N6750 G02 X-18.45 Y-4.5 I11.958 J7.185
N6755 G01 Y4.5
N6760 G02 X-16.461 Y11.678 I13.95
N6765 G01 X-16.428 Y11.727
N6770 X-16.389 Y11.772
N6775 X-4.141 Y24.201
N6780 G02 X-3.785 Y24.35 I0.356 J-0.351
N6785 G01 X3.785
N6790 G03 X3.831 Y27.299 J1.475
N6795 G01 X0.581 Y27.4
N6800 G03 X0. Y27.3 I-0.046 J-1.474
N6805 G01 X-3.785 Y25.825
N6810 G03 X-4.12 Y25.641 I0.536 J-1.374
N6815 G01 X-13.315 Y18.912
N6820 G03 X-11.685 Y16.458 I0.871 J-1.19
N6825 G02 X-4.5 Y18.45 I7.185 J-11.958
N6830 G01 X4.5
N6835 G02 X11.678 Y16.461 J-13.95
N6840 G01 X11.727 Y16.428
N6845 X11.772 Y16.389
N6850 X24.201 Y4.141
N6855 G02 X24.35 Y3.785 I-0.351 J-0.356
N6860 G01 Y-3.785
N6865 G03 X27.299 Y-3.831 I1.475
N6870 G01 X27.4 Y-0.581
N6875 G03 X27.3 Y0. I-1.474 J0.046
N6880 G01 X25.825 Y3.785
N6885 G03 X25.641 Y4.12 I-1.374 J-0.536
N6890 G01 X18.912 Y13.315
N6895 G03 X16.458 Y11.685 I-1.19 J-0.871
N6900 G02 X18.45 Y4.5 I-11.958 J-7.185
N6905 G01 Y-4.5
N6910 G02 X16.461 Y-11.678 I-13.95
N6915 X10.248 Y-13.755 I-4.32 J2.593
N6920 G03 X3.817 Y-12.5 I-6.43 J-15.852
N6925 G01 X-4.5
N6930 G02 X-12.5 Y-4.5 J8.
N6935 G01 Y4.5
N6940 G02 X-4.5 Y12.5 I8.
N6945 G01 X4.5
N6950 G02 X12.5 Y4.5 J-8.
N6955 G01 Y-4.5
N6960 G02 X4.5 Y-12.5 I-8.
N6965 G01 X3.817
N6970 G03 X3.562 Y-12.541 Z-1.466 I0.025 J-0.975
N6975 G01 X3.449 Y-12.582 Z-1.416
N6980 X3.342 Y-12.638 Z-1.366
N6985 X3.256 Y-12.695 Z-1.287
N6990 X3.177 Y-12.762 Z-1.207
N6995 X3.121 Y-12.818 Z-1.104
N7000 X3.07 Y-12.879 Z-1.
N7005 X3.013 Y-12.961 Z-0.759
N7010 X2.996 Y-12.991 Z-0.5
N7015 G00 Z15.
N7020 X30.889 Y-22.497
N7025 Z5.
N7030 G01 Z-2. F333.
N7035 X30.884 Y-22.502 Z-2.121 F1000.
N7040 X30.869 Y-22.518 Z-2.239
N7045 X30.843 Y-22.543 Z-2.355
N7050 X30.808 Y-22.578 Z-2.465
N7055 X30.764 Y-22.622 Z-2.568
N7060 X30.711 Y-22.675 Z-2.663
N7065 X30.651 Y-22.735 Z-2.749
N7070 X30.584 Y-22.803 Z-2.823
N7075 X30.511 Y-22.876 Z-2.885
N7080 X30.433 Y-22.954 Z-2.935
N7085 X30.351 Y-23.035 Z-2.971
N7090 X30.267 Y-23.119 Z-2.993
N7095 X30.182 Y-23.204 Z-3.
N7100 X29.89 Y-23.496
N7105 X23.492 Y-29.894
N7110 G03 X25.56 Y-31.999 I1.043 J-1.043
N7115 G01 X28.487 Y-29.174
N7120 G03 X28.777 Y-28.781 I-1.024 J1.061
N7125 G01 X30.933 Y-24.539
N7130 G03 X31.072 Y-24.121 I-1.315 J0.668
N7135 G01 X32.393 Y-16.44
N7140 G03 X29.896 Y-15.147 I-1.454 J0.25
N7145 G01 X15.143 Y-29.9
N7150 G03 X17.228 Y-31.987 I1.043 J-1.043
N7155 G01 X24.468 Y-24.767
N7160 X24.54 Y-24.69
N7165 X24.606 Y-24.609
N7170 X30.939 Y-16.19
N7175 G03 X31.215 Y-15.548 I-1.179 J0.887
N7180 G01 X32.516 Y-7.821
N7185 G03 X29.892 Y-6.676 I-1.455 J0.245
N7190 G02 X28.956 Y-7.743 I-8.679 J6.676
N7195 G01 X7.743 Y-28.956
N7200 G02 X6.668 Y-29.899 I-7.743 J7.743
N7205 X6.364 Y-30.002 I-0.304 J0.397
N7210 G01 X-23.142 Y-30.037
N7215 G02 X-23.496 Y-29.89 I-0.001 J0.5
N7220 G01 X-29.894 Y-23.492
N7225 G03 X-31.999 Y-25.56 I-1.043 J-1.043
N7230 G01 X-29.174 Y-28.487
N7235 G03 X-28.781 Y-28.777 I1.061 J1.024
N7240 G01 X-24.539 Y-30.933
N7245 G03 X-24.121 Y-31.072 I0.668 J1.315
N7250 G01 X-16.44 Y-32.393
N7255 G03 X-15.147 Y-29.896 I0.25 J1.454
N7260 G01 X-29.9 Y-15.143
N7265 G03 X-31.987 Y-17.228 I-1.043 J-1.043
N7270 G01 X-24.767 Y-24.468
N7275 X-24.69 Y-24.54
N7280 X-24.609 Y-24.606
N7285 X-16.19 Y-30.939
N7290 G03 X-15.548 Y-31.215 I0.887 J1.179
N7295 G01 X-7.821 Y-32.516
N7300 G03 X-6.676 Y-29.892 I0.245 J1.455
N7305 G02 X-7.743 Y-28.956 I6.676 J8.679
N7310 G01 X-28.956 Y-7.743
N7315 G02 X-29.899 Y-6.668 I7.743 J7.743
N7320 X-30.002 Y-6.364 I0.397 J0.304
N7325 G01 X-30.037 Y23.142
N7330 G02 X-29.89 Y23.496 I0.5 J0.001
N7335 G01 X-23.492 Y29.894
N7340 G03 X-25.56 Y31.999 I-1.043 J1.043
N7345 G01 X-28.487 Y29.174
N7350 G03 X-28.777 Y28.781 I1.024 J-1.061
N7355 G01 X-30.933 Y24.539
N7360 G03 X-31.072 Y24.121 I1.315 J-0.668
N7365 G01 X-32.393 Y16.44
N7370 G03 X-29.896 Y15.147 I1.454 J-0.25
N7375 G01 X-15.143 Y29.9
N7380 G03 X-17.228 Y31.987 I-1.043 J1.043
N7385 G01 X-24.468 Y24.767
N7390 X-24.54 Y24.69
N7395 X-24.606 Y24.609
N7400 X-30.939 Y16.19
N7405 G03 X-31.215 Y15.548 I1.179 J-0.887
N7410 G01 X-32.516 Y7.821
N7415 G03 X-29.892 Y6.676 I1.455 J-0.245
N7420 G02 X-28.956 Y7.743 I8.679 J-6.676
N7425 G01 X-7.743 Y28.956
N7430 G02 X-6.668 Y29.899 I7.743 J-7.743
N7435 X-6.364 Y30.002 I0.304 J-0.397
N7440 G01 X23.142 Y30.037
N7445 G02 X23.496 Y29.89 I0.001 J-0.5
N7450 G01 X29.894 Y23.492
N7455 G03 X31.999 Y25.56 I1.043 J1.043
N7460 G01 X29.174 Y28.487
N7465 G03 X28.781 Y28.777 I-1.061 J-1.024
N7470 G01 X24.539 Y30.933
N7475 G03 X24.121 Y31.072 I-0.668 J-1.315
N7480 G01 X16.44 Y32.393
N7485 G03 X15.147 Y29.896 I-0.25 J-1.454
N7490 G01 X29.9 Y15.143
N7495 G03 X31.987 Y17.228 I1.043 J1.043
N7500 G01 X24.767 Y24.468
N7505 X24.69 Y24.54
N7510 X24.609 Y24.606
N7515 X16.19 Y30.939
N7520 G03 X15.548 Y31.215 I-0.887 J-1.179
N7525 G01 X7.821 Y32.516
N7530 G03 X6.676 Y29.892 I-0.245 J-1.455
N7535 G02 X7.743 Y28.956 I-6.676 J-8.679
N7540 G01 X28.956 Y7.743
N7545 G02 X29.899 Y6.668 I-7.743 J-7.743
N7550 X28.864 Y-0.242 I-3.85 J-2.956
N7555 G03 X23.53 Y-4.755 I24.367 J-34.214
N7560 G01 X3.536 Y-24.749
N7565 G02 X-3.536 I-3.536 J3.536
N7570 G01 X-24.749 Y-3.536
N7575 G02 Y3.536 I3.536 J3.536
N7580 G01 X-3.536 Y24.749
N7585 G02 X3.536 I3.536 J-3.536
N7590 G01 X24.749 Y3.536
N7595 G02 Y-3.536 I-3.536 J-3.536
N7600 G01 X23.53 Y-4.755
N7605 G03 X23.378 Y-4.964 Z-2.966 I0.707 J-0.672
N7610 G01 X23.328 Y-5.073 Z-2.916
N7615 X23.291 Y-5.188 Z-2.866
N7620 X23.271 Y-5.289 Z-2.787
N7625 X23.262 Y-5.393 Z-2.707
N7630 Y-5.472 Z-2.604
N7635 X23.269 Y-5.551 Z-2.5
N7640 X23.287 Y-5.649 Z-2.259
N7645 X23.296 Y-5.682 Z-2.
N7650 G00 Z15.
N7655 M09
N7660 M05
N7665 G28 G91 Z0.
N7670 G90
N7675 G49

(DRILL1)
N7680 M01
N7685 T2 M06
N7690 T3
N7695 S5000 M03
N7700 G17 G90 G94
N7705 G54
N7710 M08
N7715 G00 X-4.243 Y-4.243
N7720 G43 Z15. H02
N7725 G00 Z5.
N7730 G98 G81 X-4.243 Y-4.243 Z-5. R5. F333.
N7735 X4.243
N7740 X0. Y0.
N7745 X-4.243 Y4.243
N7750 X4.243
N7755 G80
N7760 Z15.
N7765 M09
N7770 M05
N7775 G28 G91 Z0.
N7780 G90
N7785 G49

(DRILL2)
N7790 M01
N7795 T3 M06
N7800 T1
N7805 S5000 M03
N7810 G17 G90 G94
N7815 G54
N7820 M08
N7825 G00 X13. Y0.
N7830 G43 Z15. H03
N7835 G00 Z5.
N7840 G81 X13. Y0. Z-4.5 R3.5 F333.
N7845 X0. Y-13.
N7850 X-13. Y0.
N7855 X0. Y13.
N7860 G80
N7865 Z15.

(SLOT1)
N7870 G00 X14.303 Y14.303
N7875 Z15.
N7880 Z5.
N7885 G01 Z2.5 F333.
N7890 X21.303 Y21.303 Z2.302
N7895 X14.303 Y14.303 Z2.105
N7900 X21.303 Y21.303 Z1.907
N7905 X14.303 Y14.303 Z1.709
N7910 X21.303 Y21.303 Z1.512
N7915 X14.303 Y14.303 Z1.314
N7920 X21.303 Y21.303 Z1.116
N7925 X14.303 Y14.303 Z0.919
N7930 X21.303 Y21.303 Z0.721
N7935 X14.303 Y14.303 Z0.523
N7940 X21.303 Y21.303 Z0.326
N7945 X14.303 Y14.303 Z0.128
N7950 X21.303 Y21.303 Z-0.07
N7955 X14.303 Y14.303 Z-0.267
N7960 X21.303 Y21.303 Z-0.465
N7965 X14.303 Y14.303 Z-0.663
N7970 X21.303 Y21.303 Z-0.86
N7975 X14.303 Y14.303 Z-1.058
N7980 X21.303 Y21.303 Z-1.256
N7985 X14.303 Y14.303 Z-1.453
N7990 X21.303 Y21.303 Z-1.651
N7995 X14.303 Y14.303 Z-1.849
N8000 X21.303 Y21.303 Z-2.047
N8005 X14.303 Y14.303 Z-2.244
N8010 X21.303 Y21.303 Z-2.442
N8015 X14.303 Y14.303 Z-2.64
N8020 X21.303 Y21.303 Z-2.837
N8025 X14.303 Y14.303 Z-3.035
N8030 X21.303 Y21.303 Z-3.233
N8035 X14.303 Y14.303 Z-3.43
N8040 X21.303 Y21.303 Z-3.628
N8045 X14.303 Y14.303 Z-3.826
N8050 X21.303 Y21.303 Z-4.023
N8055 X14.303 Y14.303 Z-4.221
N8060 X21.303 Y21.303 Z-4.419
N8065 X14.303 Y14.303 Z-4.616
N8070 X21.303 Y21.303 Z-4.814
N8075 X14.303 Y14.303 Z-5.012
N8080 X21.303 Y21.303 Z-5.209
N8085 X14.303 Y14.303 Z-5.407
N8090 X21.303 Y21.303 Z-5.605
N8095 X14.303 Y14.303 Z-5.802
N8100 X21.303 Y21.303 Z-6.
N8105 X14.303 Y14.303 F1000.
N8110 G00 Z5.
N8115 Y-14.303
N8120 G01 Z2.5 F333.
N8125 X21.303 Y-21.303 Z2.302
N8130 X14.303 Y-14.303 Z2.105
N8135 X21.303 Y-21.303 Z1.907
N8140 X14.303 Y-14.303 Z1.709
N8145 X21.303 Y-21.303 Z1.512
N8150 X14.303 Y-14.303 Z1.314
N8155 X21.303 Y-21.303 Z1.116
N8160 X14.303 Y-14.303 Z0.919
N8165 X21.303 Y-21.303 Z0.721
N8170 X14.303 Y-14.303 Z0.523
N8175 X21.303 Y-21.303 Z0.326
N8180 X14.303 Y-14.303 Z0.128
N8185 X21.303 Y-21.303 Z-0.07
N8190 X14.303 Y-14.303 Z-0.267
N8195 X21.303 Y-21.303 Z-0.465
N8200 X14.303 Y-14.303 Z-0.663
N8205 X21.303 Y-21.303 Z-0.86
N8210 X14.303 Y-14.303 Z-1.058
N8215 X21.303 Y-21.303 Z-1.256
N8220 X14.303 Y-14.303 Z-1.453
N8225 X21.303 Y-21.303 Z-1.651
N8230 X14.303 Y-14.303 Z-1.849
N8235 X21.303 Y-21.303 Z-2.047
N8240 X14.303 Y-14.303 Z-2.244
N8245 X21.303 Y-21.303 Z-2.442
N8250 X14.303 Y-14.303 Z-2.64
N8255 X21.303 Y-21.303 Z-2.837
N8260 X14.303 Y-14.303 Z-3.035
N8265 X21.303 Y-21.303 Z-3.233
N8270 X14.303 Y-14.303 Z-3.43
N8275 X21.303 Y-21.303 Z-3.628
N8280 X14.303 Y-14.303 Z-3.826
N8285 X21.303 Y-21.303 Z-4.023
N8290 X14.303 Y-14.303 Z-4.221
N8295 X21.303 Y-21.303 Z-4.419
N8300 X14.303 Y-14.303 Z-4.616
N8305 X21.303 Y-21.303 Z-4.814
N8310 X14.303 Y-14.303 Z-5.012
N8315 X21.303 Y-21.303 Z-5.209
N8320 X14.303 Y-14.303 Z-5.407
N8325 X21.303 Y-21.303 Z-5.605
N8330 X14.303 Y-14.303 Z-5.802
N8335 X21.303 Y-21.303 Z-6.
N8340 X14.303 Y-14.303 F1000.
N8345 G00 Z5.
N8350 X-21.303 Y-21.303
N8355 G01 Z2.5 F333.
N8360 X-14.303 Y-14.303 Z2.302
N8365 X-21.303 Y-21.303 Z2.105
N8370 X-14.303 Y-14.303 Z1.907
N8375 X-21.303 Y-21.303 Z1.709
N8380 X-14.303 Y-14.303 Z1.512
N8385 X-21.303 Y-21.303 Z1.314
N8390 X-14.303 Y-14.303 Z1.116
N8395 X-21.303 Y-21.303 Z0.919
N8400 X-14.303 Y-14.303 Z0.721
N8405 X-21.303 Y-21.303 Z0.523
N8410 X-14.303 Y-14.303 Z0.326
N8415 X-21.303 Y-21.303 Z0.128
N8420 X-14.303 Y-14.303 Z-0.07
N8425 X-21.303 Y-21.303 Z-0.267
N8430 X-14.303 Y-14.303 Z-0.465
N8435 X-21.303 Y-21.303 Z-0.663
N8440 X-14.303 Y-14.303 Z-0.86
N8445 X-21.303 Y-21.303 Z-1.058
N8450 X-14.303 Y-14.303 Z-1.256
N8455 X-21.303 Y-21.303 Z-1.453
N8460 X-14.303 Y-14.303 Z-1.651
N8465 X-21.303 Y-21.303 Z-1.849
N8470 X-14.303 Y-14.303 Z-2.047
N8475 X-21.303 Y-21.303 Z-2.244
N8480 X-14.303 Y-14.303 Z-2.442
N8485 X-21.303 Y-21.303 Z-2.64
N8490 X-14.303 Y-14.303 Z-2.837
N8495 X-21.303 Y-21.303 Z-3.035
N8500 X-14.303 Y-14.303 Z-3.233
N8505 X-21.303 Y-21.303 Z-3.43
N8510 X-14.303 Y-14.303 Z-3.628
N8515 X-21.303 Y-21.303 Z-3.826
N8520 X-14.303 Y-14.303 Z-4.023
N8525 X-21.303 Y-21.303 Z-4.221
N8530 X-14.303 Y-14.303 Z-4.419
N8535 X-21.303 Y-21.303 Z-4.616
N8540 X-14.303 Y-14.303 Z-4.814
N8545 X-21.303 Y-21.303 Z-5.012
N8550 X-14.303 Y-14.303 Z-5.209
N8555 X-21.303 Y-21.303 Z-5.407
N8560 X-14.303 Y-14.303 Z-5.605
N8565 X-21.303 Y-21.303 Z-5.802
N8570 X-14.303 Y-14.303 Z-6.
N8575 X-21.303 Y-21.303 F1000.
N8580 G00 Z5.
N8585 Y21.303
N8590 G01 Z2.5 F333.
N8595 X-14.303 Y14.303 Z2.302
N8600 X-21.303 Y21.303 Z2.105
N8605 X-14.303 Y14.303 Z1.907
N8610 X-21.303 Y21.303 Z1.709
N8615 X-14.303 Y14.303 Z1.512
N8620 X-21.303 Y21.303 Z1.314
N8625 X-14.303 Y14.303 Z1.116
N8630 X-21.303 Y21.303 Z0.919
N8635 X-14.303 Y14.303 Z0.721
N8640 X-21.303 Y21.303 Z0.523
N8645 X-14.303 Y14.303 Z0.326
N8650 X-21.303 Y21.303 Z0.128
N8655 X-14.303 Y14.303 Z-0.07
N8660 X-21.303 Y21.303 Z-0.267
N8665 X-14.303 Y14.303 Z-0.465
N8670 X-21.303 Y21.303 Z-0.663
N8675 X-14.303 Y14.303 Z-0.86
N8680 X-21.303 Y21.303 Z-1.058
N8685 X-14.303 Y14.303 Z-1.256
N8690 X-21.303 Y21.303 Z-1.453
N8695 X-14.303 Y14.303 Z-1.651
N8700 X-21.303 Y21.303 Z-1.849
N8705 X-14.303 Y14.303 Z-2.047
N8710 X-21.303 Y21.303 Z-2.244
N8715 X-14.303 Y14.303 Z-2.442
N8720 X-21.303 Y21.303 Z-2.64
N8725 X-14.303 Y14.303 Z-2.837
N8730 X-21.303 Y21.303 Z-3.035
N8735 X-14.303 Y14.303 Z-3.233
N8740 X-21.303 Y21.303 Z-3.43
N8745 X-14.303 Y14.303 Z-3.628
N8750 X-21.303 Y21.303 Z-3.826
N8755 X-14.303 Y14.303 Z-4.023
N8760 X-21.303 Y21.303 Z-4.221
N8765 X-14.303 Y14.303 Z-4.419
N8770 X-21.303 Y21.303 Z-4.616
N8775 X-14.303 Y14.303 Z-4.814
N8780 X-21.303 Y21.303 Z-5.012
N8785 X-14.303 Y14.303 Z-5.209
N8790 X-21.303 Y21.303 Z-5.407
N8795 X-14.303 Y14.303 Z-5.605
N8800 X-21.303 Y21.303 Z-5.802
N8805 X-14.303 Y14.303 Z-6.
N8810 X-21.303 Y21.303 F1000.
N8815 G00 Z15.

N8820 M09
N8825 M05
N8830 G28 G91 Z0.
N8835 G90
N8840 G49
N8845 G28 G91 X0. Y0.
N8850 G90
N8855 M30
%
